src/assets/image/block11/employee-decor7.svg

<svg width="26" height="24" fill="none" xmlns="http://www.w3.org/2000/svg"><path d="M.5 13.25H8v10H.5v-10ZM18 7h7.5v16.25H18V7ZM9.25.75h7.5v22.5h-7.5V.75ZM3 15.75v5h2.5v-5H3Zm8.75-12.5v17.5h2.5V3.25h-2.5ZM20.5 9.5v11.25H23V9.5h-2.5Z" fill="#696FE6"/></svg>

<svg width="26" height="24" viewBox="0 0 26 24" fill="none" xmlns="http://www.w3.org/2000/svg">
<path d="M0.5 13.25H8V23.25H0.5V13.25ZM18 7H25.5V23.25H18V7ZM9.25 0.75H16.75V23.25H9.25V0.75ZM3 15.75V20.75H5.5V15.75H3ZM11.75 3.25V20.75H14.25V3.25H11.75ZM20.5 9.5V20.75H23V9.5H20.5Z" fill="#696FE6"/>
</svg>
